bank-logos/l_L1xbwTN5RWeT2j0JHY0rew.svg

<svg width="300" height="300" viewBox="0 0 300 300" fill="none" xmlns="http://www.w3.org/2000/svg">
<g clip-path="url(#clip0)">
<path d="M149.998 0V300C232.844 300 300 232.843 300 150.002C300 67.1546 232.843 0 149.998 0Z" fill="#2B479D"/>
<path d="M149.998 0C67.1572 0 0 67.1546 0 150.002C0 232.843 67.1572 300 149.998 300C232.843 300 232.843 0 149.998 0Z" fill="#2B479D"/>
<path d="M149.742 26.0146L153.401 37.2742H165.243L155.663 44.2327L159.322 55.4923L149.742 48.5293L140.164 55.4923L143.823 44.2327L134.24 37.2742H146.082L149.742 26.0146Z" fill="#F8D12E"/>
<path d="M149.742 238.572L153.401 249.837H165.243L155.663 256.795L159.322 268.054L149.742 261.096L140.164 268.054L143.823 256.795L134.24 249.837H146.082L149.742 238.572Z" fill="#F8D12E"/>
<path d="M208.079 44.8534L211.735 56.1155H223.578L213.997 63.0785L217.657 74.338L208.079 67.3751L198.499 74.338L202.157 63.0785L192.579 56.1155H204.422L208.079 44.8534Z" fill="#F8D12E"/>
<path d="M247.88 84.1219L251.537 95.3815H263.38L253.799 102.343L257.458 113.602L247.88 106.644L238.3 113.602L241.959 102.343L232.379 95.3815H244.218L247.88 84.1219Z" fill="#F8D12E"/>
<path d="M248.828 183.336L252.485 194.6H264.326L254.746 201.558L258.408 212.815L248.828 205.859L239.247 212.815L242.907 201.558L233.326 194.6H245.168L248.828 183.336Z" fill="#F8D12E"/>
<path d="M53.0457 84.1219L56.7026 95.3815H68.5423L58.9643 102.343L62.6212 113.602L53.0457 106.644L43.4657 113.602L47.1246 102.343L37.5465 95.3815H49.3888L53.0457 84.1219Z" fill="#F8D12E"/>
<path d="M257.105 131.438L260.762 142.698H272.604L263.024 149.656L266.683 160.919L257.105 153.963L247.525 160.919L251.186 149.656L241.604 142.698H253.444L257.105 131.438Z" fill="#F8D12E"/>
<path d="M43.9984 131.438L47.6553 142.698H59.495L49.9151 149.656L53.5764 160.919L43.9984 153.963L34.4178 160.919L38.0773 149.656L28.4973 142.698H40.3389L43.9984 131.438Z" fill="#F8D12E"/>
<path d="M51.7619 183.336L55.4189 194.6H67.2586L57.6812 201.558L61.3374 212.815L51.7619 205.859L42.182 212.815L45.8408 201.558L36.2609 194.6H48.1031L51.7619 183.336Z" fill="#F8D12E"/>
<path d="M209.795 224.279L213.452 235.538H225.295L215.712 242.501L219.374 253.761L209.795 246.802L200.213 253.761L203.875 242.501L194.294 235.538H206.137L209.795 224.279Z" fill="#F8D12E"/>
<path d="M93.2953 44.8534L96.9516 56.1155H108.794L99.2139 63.0785L102.875 74.338L93.2953 67.3751L83.7173 74.338L87.3761 63.0785L77.7961 56.1155H89.6359L93.2953 44.8534Z" fill="#F8D12E"/>
<path d="M88.9752 223.559L92.6341 234.823H104.476L94.8964 241.779L98.5552 253.039L88.9752 246.085L79.3972 253.039L83.056 241.779L73.4761 234.823H85.3158L88.9752 223.559Z" fill="#F8D12E"/>
<path d="M164.336 192C148.83 192 135.294 183.533 128.018 171H164.5V157H122.968C122.583 154.718 122.336 152.389 122.336 150C122.336 147.61 122.583 145.282 122.968 143H164.5V129H128.018C135.294 116.467 148.83 108 164.336 108C169.476 108 174.569 108.964 179.47 110.864L182 97.8075C175.478 95.2818 171.213 94 164.336 94C140.886 94 120.787 108.504 112.459 129H98V143H108.822C108.534 145.299 108.336 147.625 108.336 150C108.336 152.376 108.534 154.701 108.822 157H98V171H112.459C120.787 191.496 140.886 206 164.336 206C171.213 206 175.478 204.718 182 202.193L179.471 189.136C174.569 191.036 169.476 192 164.336 192Z" fill="white"/>
</g>
<defs>
<clipPath id="clip0">
<rect width="300" height="300" fill="white"/>
</clipPath>
</defs>
</svg>

<svg width="300" height="300" fill="none" xmlns="http://www.w3.org/2000/svg"><g clip-path="url(#a)"><path d="M149.998 0v300C232.844 300 300 232.843 300 150.002 300 67.155 232.843 0 149.998 0z" fill="#2B479D"/><path d="M149.998 0C67.158 0 0 67.155 0 150.002 0 232.843 67.157 300 149.998 300c82.845 0 82.845-300 0-300z" fill="#2B479D"/><path d="m149.742 26.015 3.659 11.26h11.842l-9.58 6.958 3.659 11.26-9.58-6.964-9.578 6.963 3.659-11.26-9.583-6.958h11.842l3.66-11.26zM149.742 238.572l3.659 11.265h11.842l-9.58 6.958 3.659 11.259-9.58-6.958-9.578 6.958 3.659-11.259-9.583-6.958h11.842l3.66-11.265zM208.079 44.853l3.656 11.262h11.843l-9.581 6.963 3.66 11.26-9.578-6.963-9.58 6.963 3.658-11.26-9.578-6.963h11.843l3.657-11.262zM247.88 84.122l3.657 11.26h11.843l-9.581 6.961 3.659 11.259-9.578-6.958-9.58 6.958 3.659-11.259-9.58-6.962h11.839l3.662-11.26zM248.828 183.336l3.657 11.264h11.841l-9.58 6.958 3.662 11.257-9.58-6.956-9.581 6.956 3.66-11.257-9.581-6.958h11.842l3.66-11.264zM53.046 84.122l3.657 11.26h11.84l-9.579 6.961 3.657 11.259-9.575-6.958-9.58 6.958 3.659-11.259-9.578-6.962h11.842l3.657-11.26zM257.105 131.438l3.657 11.26h11.842l-9.58 6.958 3.659 11.263-9.578-6.956-9.58 6.956 3.661-11.263-9.582-6.958h11.84l3.661-11.26zM43.998 131.438l3.657 11.26h11.84l-9.58 6.958 3.661 11.263-9.578-6.956-9.58 6.956 3.66-11.263-9.58-6.958h11.84l3.66-11.26zM51.762 183.336l3.657 11.264h11.84l-9.578 6.958 3.656 11.257-9.575-6.956-9.58 6.956 3.659-11.257-9.58-6.958h11.842l3.659-11.264zM209.795 224.279l3.657 11.259h11.843l-9.583 6.963 3.662 11.26-9.579-6.959-9.582 6.959 3.662-11.26-9.581-6.963h11.843l3.658-11.259zM93.295 44.853l3.657 11.262h11.842l-9.58 6.963 3.661 11.26-9.58-6.963-9.578 6.963 3.66-11.26-9.58-6.963h11.839l3.66-11.262zM88.975 223.559l3.66 11.264h11.841l-9.58 6.956 3.66 11.26-9.58-6.954-9.579 6.954 3.659-11.26-9.58-6.956h11.84l3.66-11.264z" fill="#F8D12E"/><path d="M164.336 192c-15.506 0-29.042-8.467-36.318-21H164.5v-14h-41.532c-.385-2.282-.632-4.611-.632-7 0-2.39.247-4.718.632-7H164.5v-14h-36.482c7.276-12.533 20.812-21 36.318-21 5.14 0 10.233.964 15.134 2.864L182 97.808C175.478 95.282 171.213 94 164.336 94c-23.45 0-43.549 14.504-51.877 35H98v14h10.822c-.288 2.299-.486 4.625-.486 7 0 2.376.198 4.701.486 7H98v14h14.459c8.328 20.496 28.427 35 51.877 35 6.877 0 11.142-1.282 17.664-3.807l-2.529-13.057c-4.902 1.9-9.995 2.864-15.135 2.864z" fill="#fff"/></g><defs><clipPath id="a"><path fill="#fff" d="M0 0h300v300H0z"/></clipPath></defs></svg>
